**kern
*staff1
*>solo1[solo1]
*>solo2[solo2]
*>solo3[solo3]
*>solo4[solo4]
*>head[head1]
*>head1
*clefG2
=1-
*k[]
*B-:
*M4/4
8r
{8B-/
24e-/LL
24f/
24e-/JJ
8B-/
8d-/L
8dn/J
8r
8B-/
=2
24e-/LL
24f/
24e-/JJ
8B-/L
8d-/
8dn/J
8r
8B-/
24e-/LL
24f/
24e-/JJ
8B-/
=3
8d-/L
8dn/J
8r
8B-/
8c/L
[8A-/J
4A-/]}
=4
1r
=5
{16dd-\LL1E-:dom
16cc\
16b-\
16a-\JJ
16g/LL
16f/
16e-/
16A/JJ
16B-/LL
16c/
16d-/
16B-/JJ
[4c/
=6
4c/]}
4r
8r
{8B-/L
8d/
8f/J
=7
8g/L
8b-/
8cc/
8a/J
16b-/LL
16cc/
16b-/
16a/J
8g/
8g-/J
=8
8f/L
8e-/
8d/
8c/J
8B/L
8a-/J
24g/LL
24a-/
24g/JJ
8f/
=9
8e-/L
8G/
8B-/
8d/J
4c/}
8r
{[8dd-\
=10
8dd-\]
4b-\
8a-/
8f/L
8e-/
8d-/
[8B-/J
=11
4B-/]
8G/L
8B-/J
6c/
6B-/
6B-/
=12
4B-/}
4r
2r
=13
8r
*>solo1
{8B-/
24e-/LL
24f/
24e-/JJ
8B-/
8d-/L
8dn/J
8r
8B-/
=14||
24e-/LL
24f/
24e-/JJ
8B-/L
8d-/
8dn/J
8r
8B-/
24e-/LL
24f/
24e-/JJ
8B-/
=15
8d-/L
8dn/J
8r
8B-/
8c/L
[8A-/J
4A-/]}
=16
2r
{16g/LL
16g-/
16e/
16B-/JJ
16Bn/LL
16c#/
16A-/
16G-/JJ
=17
16G/LL
16B-/
16c/
16d/JJ
16f/LL
16e-/
16d/
16B-/JJ
4d-/}
4r
=18
1r
=19
1r
=20
1r
=21
2r
4r
8r
{[8dd-\
=22
8dd-\]
4b-\
8a-/
8f/L
8e-/
8d-/
[8B-/J
=23
4B-/]
8G/L
8B-/J
6c/
6B-/
6B-/
=24
4B-/}
4r
8r
*>solo2
{[8d/L
8d/]
16e-/L
16en/JJ
=25
16f/LL
16c/
16c#/
16d/JJ
16e-/LL
16B-/
16cn/
16c#/JJ
8d/L
[8A/J
4A/]}
=26||
4r
8r
{8c/
24B-/LL
24c/
24B-/JJ
8G/L
8A/
8f#/J
=27
8e-/L
8en/
8f/
8e-/J
8d/L
8c/
8B-/
8A/J
=28
8A-/L
8c/
8b-/
[8g-/J
8g-/L]
16c/L
16B-/J
8A-/
8B-/J
=29
4f/
8e-/L
8B-/J
4d-/}
4r
=30
1r
=31
8r
{8c#/
16d/LL
16f/
16g/
16a/JJ
8cc\L
8b-\J
24a/LL
24b-/
24a/JJ
8g/
=32
8f/L
8e-/
8d/
8c/J
8B/L
8a-/J
24g/LL
24a-/
24g/JJ
8f/
=33
8e-/L
8G/
8B-/
8d/J
8c/L
8B-/J
12A/L
12c/
12g-/J
=34
8f/L
8e-/J
12B-/L
12G/
12G-/J
4.d/
8B-/
=35
8c/L
8B-/
8A/
8B-/J
8d/L
[8f/J
4f/]}
=36
1r
=37
8r
*>solo3
{8b-\L
8b-\
[8dd-\J
24dd-\LL]
24ee-\
24dd-\JJ
8b-\L
8cc\
8b-\J
=38||
8a-/L
8f/J
16d-/LL
16B-/
16c/
16B-/JJ
8dn/L
8B-/J
12F/L
12E-/
12F/J
=39
12D/L
12F/
[12B-/J
4B-/]}
2r
=40
4r
8r
{16cc\LL
16b-\JJ
4a-/
8r
8B-/
=41
12G/L
12A-/
12B-/J
12c/L
12d-/
12e-/J
12f/L
12f#/
12g/J
12a-/L
12an/
12b-/J
=42
8a-/L
8g-/
8gn/
[8ff/J
4ff\]
8ee-/L
8g-/J
=43
8f\L
8ee-\
8cc\
8cc#\J
8dd\L
8b-\J
24a/LL
24b-/
24a/JJ
8g/
=44
8f/L
8e-/
8d/
8c/J
8B/L
8a-/J
24g/LL
24a-/
24g/JJ
8f/
=45
8e-/L
8G/
8B-/
8d/J
8c/L
8B-/J
12c/L
12e-/
12g-/J
=46
8f/L
8A/
8B-/
8e-/J
8d/L
8B-/
8c/
[8B-/J
=47
4B-/]}
4r
2r
=48
4r
8r
{[8d/
8d/L]
8f/
8g/
8a/J
=49
4b-\}
4r
*>solo4
{8cc\
4b-\
[8dd-\
=50||
8dd-\]
24cc\LL
24b-\
24g\JJ
8f/L
[8e-/J
4e-/]
8r
8B-/
=51
8d/L
8f/J
16f/LL
16g/J
[8d/J
8d/L]
8B-/
8c/
8B-/J
=52
8d/L
8f/J
16g/LL
16f/J
[8a-/J
4a-/]}
4r
=53
4r
8r
{8e-/
8g\L
8b-\
8cc\
8dd-\J
=54
24b-\LL
24cc\
24b-\JJ
8a-/L
8f/
8e-/J
4d-/
8B-/L
8G/J
=55
4.d/
[8a/
4a/]
8r
8f/
=56
8d/L
8A/
8A-/
[8f#/J
4f#/]
8g/L
[8c/J
=57
4c/]}
4r
8r
{8d/
12e-/L
12g/
12b-/J
=58
8dd\L
8dd-\
8cc\
[8b\J
24b\LL]
24cc\
24b\JJ
8g-/L
8e-/
8c/J
=59
4a/
12f/L
12d/
12B-/J
f#q/
8g/}
8r
4r
=60
8r
{[8d/
4d/]
8f/L
8e-/J
12B-/L
12G/
12E-/J
=61
4d/
24B-/LL
24c/
24B-/JJ
8G/
8c/L
[8F/J
4F/]}
==
*-
